src/pos-icons/bus.svg

<svg height="24" viewBox="0 0 24 24" width="24" xmlns="http://www.w3.org/2000/svg"><path d="m18 11h-12v-5h12m-1.5 11a1.5 1.5 0 0 1 -1.5-1.5 1.5 1.5 0 0 1 1.5-1.5 1.5 1.5 0 0 1 1.5 1.5 1.5 1.5 0 0 1 -1.5 1.5m-9 0a1.5 1.5 0 0 1 -1.5-1.5 1.5 1.5 0 0 1 1.5-1.5 1.5 1.5 0 0 1 1.5 1.5 1.5 1.5 0 0 1 -1.5 1.5m-3.5-1c0 .88.39 1.67 1 2.22v1.78a1 1 0 0 0 1 1h1a1 1 0 0 0 1-1v-1h8v1a1 1 0 0 0 1 1h1a1 1 0 0 0 1-1v-1.78c.61-.55 1-1.34 1-2.22v-10c0-3.5-3.58-4-8-4s-8 .5-8 4z"/></svg>

<?xml version="1.0" encoding="UTF-8"?><!DOCTYPE svg PUBLIC "-//W3C//DTD SVG 1.1//EN" "http://www.w3.org/Graphics/SVG/1.1/DTD/svg11.dtd"><svg xmlns="http://www.w3.org/2000/svg" xmlns:xlink="http://www.w3.org/1999/xlink" version="1.1" id="mdi-bus" width="24" height="24" viewBox="0 0 24 24"><path d="M18,11H6V6H18M16.5,17A1.5,1.5 0 0,1 15,15.5A1.5,1.5 0 0,1 16.5,14A1.5,1.5 0 0,1 18,15.5A1.5,1.5 0 0,1 16.5,17M7.5,17A1.5,1.5 0 0,1 6,15.5A1.5,1.5 0 0,1 7.5,14A1.5,1.5 0 0,1 9,15.5A1.5,1.5 0 0,1 7.5,17M4,16C4,16.88 4.39,17.67 5,18.22V20A1,1 0 0,0 6,21H7A1,1 0 0,0 8,20V19H16V20A1,1 0 0,0 17,21H18A1,1 0 0,0 19,20V18.22C19.61,17.67 20,16.88 20,16V6C20,2.5 16.42,2 12,2C7.58,2 4,2.5 4,6V16Z" /></svg>
